X: 1
T: The Jolly Daughters
R: reel
M: 4/4
L: 1/8
K: Dmaj
||: FEDE FA (3AAA | BAdB (3ABA FE | FEDE FAAF | (3GFE (3FED B,DA,D |
| FEDE FA (3AAA | BAdB (3ABA FE | AF (3FFF dF (3FFF | AFDE FE E2 :|
|: (3fgf ef ~d3B | BAFB AFEF | (3faf ef dcdf | bfaf efbf |
| afdf edBd | (3ABA FB AFEF | AF (3FFF dF (3FFF |1 AFDE FE E2 :|2 AFFE ED E2 ||

composer: Brendan Tonra
